src/assets/images/eang-logo-dark.svg

<svg width="100%" height="100%" viewBox="0 0 85 55" version="1.1" xmlns="http://www.w3.org/2000/svg" xmlns:xlink="http://www.w3.org/1999/xlink">
    <!-- Generator: Sketch 49.3 (51167) - http://www.bohemiancoding.com/sketch -->
    <desc>Created with Sketch.</desc>
    <defs></defs>
    <g id="Page-1" stroke="none" stroke-width="1" fill="none" fill-rule="evenodd">
        <g id="Group-11" fill="#000">
            <path d="M17.8024339,19.5168272 C20.5347445,19.5523447 22.4767907,20.4161811 23.6273041,22.0334959 C24.7422999,23.6875966 24.9579419,25.8452848 24.311016,28.4697744 L15.1779443,28.4697744 C15.3935862,30.0160542 16.6164031,30.8075871 18.8451263,30.8075871 C19.7076941,30.8075871 20.607048,30.6997661 21.5774369,30.5196417 C22.5478257,30.3395172 23.2670551,30.1238752 23.8061601,29.8727157 L24.382051,33.6122012 C22.4767907,34.5115551 20.499227,34.9783565 18.5216633,34.9783565 C16.0049946,34.9783565 13.9551274,34.2946446 12.3733302,32.9284893 C10.7915329,31.5268165 10,29.6202878 10,27.1759226 C10,25.5218219 10.4312839,24.0478456 11.2228168,22.8605462 C12.0143497,21.6745154 12.9492211,20.810679 14.0997344,20.3070916 C15.2489793,19.7679867 16.5073136,19.5168272 17.8024339,19.5168272 Z M15.2134618,25.3772149 L19.9601221,25.3772149 C20.0324256,24.7658065 19.8523011,24.299005 19.3854997,23.9755421 C18.9174297,23.6520791 18.3783248,23.4719547 17.7669164,23.4719547 C17.192294,23.4719547 16.6519206,23.6520791 16.1483331,23.9755421 C15.6447457,24.299005 15.3568003,24.7658065 15.2134618,25.3772149 Z M36.7878067,32.5327229 C36.3920403,33.3242558 35.7451144,33.9343957 34.8825465,34.2946446 C33.9831926,34.6904111 33.0483212,34.8705355 32.0424149,34.8705355 C30.6407421,34.8705355 29.4179252,34.4392516 28.3752329,33.5766837 C27.3325405,32.7141158 26.7566496,31.59912 26.7211321,30.2329647 C26.6488286,28.4355254 27.1524161,27.1048876 28.1951084,26.1700163 C29.2378008,25.2351449 30.6762596,24.8038609 32.4381813,24.8038609 C33.7688191,24.8038609 34.847029,25.0550204 35.7095969,25.5953938 L35.7095969,25.1641099 C35.7095969,24.049114 34.6669045,23.4744916 32.5447338,23.4744916 C30.8906331,23.4744916 29.5244777,23.7256511 28.4817854,24.2660245 L27.870377,20.5988425 C29.4889602,19.8796131 31.321917,19.5206327 33.4440877,19.5206327 C35.6372934,19.5206327 37.3992151,19.9874341 38.7653704,20.886788 C40.0960082,21.7861418 40.7784517,23.2601181 40.7784517,25.3099853 L40.7784517,30.0198597 C40.7784517,30.4866611 40.7784517,30.7746066 40.8139692,30.9902485 C40.8494867,31.170373 40.9573076,31.349229 41.1374321,31.493836 C41.3175566,31.6371745 41.605502,31.7449954 42,31.7449954 L42,34.5496095 C38.7653704,35.3018195 37.0034487,34.6536251 36.7878067,32.5327229 Z M35.6728109,29.0811829 L35.6728109,28.7577199 C35.025885,28.2909185 34.2343521,28.074008 33.3717842,28.110794 C32.7971618,28.1463115 32.3646093,28.326436 32.0766639,28.6143814 C31.7887184,28.9378444 31.6808975,29.3336108 31.7887184,29.8727157 C31.8610219,30.5564276 32.3278234,30.9154081 33.1548737,30.9154081 C33.7662822,30.9154081 34.3409046,30.7352836 34.881278,30.4118207 C35.4216514,30.0883577 35.6728109,29.6558053 35.6728109,29.0811829 Z" id="Shape"></path>
            <g id="EA-Mode_10" fill-rule="nonzero">
                <path d="M24.374293,4.60664442 C18.3794399,7.2923589 12.4091178,9.95354244 6.41426474,12.6155719 C5.38311955,13.0715089 4.66410938,13.382798 4.40019035,13.9580062 C4.1844873,14.4858442 4.40019035,15.2767554 4.49577641,16.2842156 C5.33490358,23.7416199 6.17403075,31.2227093 7.01315792,38.6801137 C7.10874398,39.3991239 7.32444703,40.022548 7.97240208,40.406584 C13.4631021,43.8832097 18.9546481,46.6171401 24.4216631,50.0700807 C25.0450872,50.4541168 25.3326913,50.5260178 25.9324304,50.1419818 C31.5195624,46.6171401 37.1303794,43.8121545 42.7175114,40.2873129 C43.2208186,39.9760238 43.3172505,39.8076908 43.3891515,39.2324827 C44.3247106,30.9122661 45.2594239,22.6157346 46.194983,14.295518 C46.266884,13.6484088 45.931064,13.4563908 45.3795409,13.1924718 C38.9778126,10.3629553 32.5989235,7.50975374 26.1971953,4.65655219 C25.5255552,4.36725633 25.0459331,4.31904035 24.374293,4.60664442 Z M1.21201464,10.5050655 C8.93249214,7.05212491 16.6775006,3.62371522 24.398824,0.170774587 C24.926662,-0.0449284651 25.5018702,-0.0686135062 26.0533932,0.170774587 C33.7501857,3.60003018 41.4715091,7.02843987 49.1683015,10.4576955 C50.0074287,10.7698305 50.5589518,11.6326427 50.4633658,12.5682018 C49.3840046,22.1597975 48.3054893,31.7505474 47.2261282,41.3176122 C47.1542272,41.9173513 46.8420922,42.4688744 46.2905691,42.8038485 C39.6486068,47.0003302 32.9829596,50.4769559 26.3409973,54.6725918 C25.6938882,55.0803128 24.854761,55.1285288 24.1594359,54.6962768 C17.5174736,50.4997951 10.8755114,47.0468544 4.25723421,42.8512186 C3.70571111,42.5399295 3.32252098,41.9884064 3.24977407,41.3167663 C2.17041291,31.7497015 1.09189765,22.1581057 0.0125364935,12.5673559 C-0.0830495651,11.7282287 0.372887475,10.8645706 1.21201464,10.5050655 Z" id="Shape"></path>
            </g>
            <path d="M57.98,33.713 L53.219,33.713 C53.357,32.632 53.403,31.666 53.403,30.24 L53.403,23.156 C53.403,21.569 53.357,20.603 53.219,19.683 L57.796,19.683 L57.796,20.649 C57.796,20.787 57.773,21.132 57.773,21.293 C59.222,19.913 60.625,19.338 62.511,19.338 C64.098,19.338 65.363,19.775 66.214,20.626 C67.134,21.546 67.525,22.673 67.525,24.49 L67.525,30.263 C67.525,31.597 67.594,32.747 67.709,33.713 L62.925,33.713 C63.063,32.609 63.109,31.643 63.109,30.24 L63.109,25.525 C63.109,24.605 63.017,24.214 62.741,23.823 C62.442,23.409 61.913,23.179 61.223,23.179 C59.935,23.179 58.785,23.984 57.796,25.594 L57.796,30.24 C57.796,31.551 57.842,32.517 57.98,33.713 Z M69.871,35.507 L73.183,33.322 C73.988,34.357 75.161,34.886 76.679,34.886 C77.944,34.886 78.933,34.541 79.485,33.874 C79.968,33.322 80.175,32.632 80.221,31.413 C79.048,32.471 77.806,32.931 76.035,32.931 C72.033,32.931 69.503,30.309 69.503,26.123 C69.503,22.029 72.102,19.338 76.035,19.338 C77.737,19.338 78.979,19.729 80.221,20.672 L80.221,19.683 L84.729,19.683 C84.591,20.718 84.545,21.523 84.545,22.88 L84.545,30.953 C84.545,33.713 83.763,35.576 82.153,36.703 C80.911,37.577 78.979,38.06 76.679,38.06 C73.551,38.06 71.481,37.278 69.871,35.507 Z M73.873,26.146 C73.873,28.262 75.069,29.619 76.886,29.619 C78.772,29.619 80.129,28.17 80.129,26.123 C80.129,24.076 78.772,22.604 76.909,22.604 C75.069,22.604 73.873,24.007 73.873,26.146 Z" id="ng"></path>
        </g>
    </g>
</svg>

<svg viewBox="0 0 85 55" xmlns="http://www.w3.org/2000/svg">
  <g fill="#000" fill-rule="evenodd">
    <path d="M17.802 19.517c2.733.035 4.675.9 5.825 2.516 1.115 1.655 1.33 3.812.684 6.437h-9.133c.216 1.546 1.438 2.338 3.667 2.338.863 0 1.762-.108 2.732-.288.97-.18 1.69-.396 2.23-.647l.575 3.74c-1.905.899-3.883 1.365-5.86 1.365-2.517 0-4.567-.683-6.149-2.05C10.792 31.527 10 29.62 10 27.176c0-1.654.431-3.128 1.223-4.315.791-1.186 1.726-2.05 2.877-2.554 1.149-.539 2.407-.79 3.702-.79zm-2.589 5.86h4.747c.072-.611-.108-1.078-.575-1.401a2.79 2.79 0 0 0-1.618-.504c-.575 0-1.115.18-1.619.504-.503.323-.791.79-.935 1.401zm21.575 7.156a3.661 3.661 0 0 1-1.905 1.762c-.9.395-1.835.576-2.84.576-1.402 0-2.625-.432-3.668-1.294-1.042-.863-1.618-1.978-1.654-3.344-.072-1.797.431-3.128 1.474-4.063 1.043-.935 2.481-1.366 4.243-1.366 1.33 0 2.409.251 3.272.791v-.43c0-1.116-1.043-1.69-3.165-1.69-1.654 0-3.02.25-4.063.791l-.612-3.667c1.619-.72 3.452-1.078 5.574-1.078 2.193 0 3.955.466 5.321 1.366 1.331.9 2.013 2.373 2.013 4.423v4.71c0 .467 0 .755.036.97.035.18.143.36.323.504.18.143.469.251.863.251v2.805c-3.235.752-4.997.104-5.212-2.017zm-1.115-3.452v-.323c-.647-.467-1.439-.684-2.301-.647-.575.035-1.007.215-1.295.503-.288.324-.396.72-.288 1.259.072.683.539 1.042 1.366 1.042.611 0 1.186-.18 1.726-.503.54-.324.792-.756.792-1.33z"/>
    <path d="M24.374 4.607a5958.941 5958.941 0 0 1-17.96 8.009c-1.03.456-1.75.767-2.014 1.342-.216.528 0 1.319.096 2.326L7.013 38.68c.096.72.311 1.343.96 1.727 5.49 3.476 10.982 6.21 16.449 9.663.623.384.91.456 1.51.072 5.588-3.525 11.198-6.33 16.786-9.855.503-.311.6-.48.671-1.055l2.806-24.936c.072-.648-.264-.84-.815-1.104-6.402-2.829-12.781-5.682-19.183-8.535-.671-.29-1.151-.338-1.823-.05zM1.212 10.505C8.932 7.052 16.678 3.624 24.399.171c.528-.216 1.103-.24 1.654 0C33.75 3.6 41.472 7.028 49.168 10.458a2.03 2.03 0 0 1 1.295 2.11c-1.079 9.592-2.158 19.183-3.237 28.75-.072.6-.384 1.15-.935 1.486C39.649 47 32.983 50.477 26.34 54.673c-.647.407-1.486.456-2.182.023-6.642-4.196-13.283-7.65-19.902-11.845a1.99 1.99 0 0 1-1.007-1.534C2.17 31.75 1.092 22.158.013 12.567a2.005 2.005 0 0 1 1.199-2.062z" fill-rule="nonzero"/>
    <path d="M57.98 33.713h-4.761c.138-1.081.184-2.047.184-3.473v-7.084c0-1.587-.046-2.553-.184-3.473h4.577v.966c0 .138-.023.483-.023.644 1.449-1.38 2.852-1.955 4.738-1.955 1.587 0 2.852.437 3.703 1.288.92.92 1.311 2.047 1.311 3.864v5.773c0 1.334.069 2.484.184 3.45h-4.784c.138-1.104.184-2.07.184-3.473v-4.715c0-.92-.092-1.311-.368-1.702-.299-.414-.828-.644-1.518-.644-1.288 0-2.438.805-3.427 2.415v4.646c0 1.311.046 2.277.184 3.473zm11.891 1.794l3.312-2.185c.805 1.035 1.978 1.564 3.496 1.564 1.265 0 2.254-.345 2.806-1.012.483-.552.69-1.242.736-2.461-1.173 1.058-2.415 1.518-4.186 1.518-4.002 0-6.532-2.622-6.532-6.808 0-4.094 2.599-6.785 6.532-6.785 1.702 0 2.944.391 4.186 1.334v-.989h4.508c-.138 1.035-.184 1.84-.184 3.197v8.073c0 2.76-.782 4.623-2.392 5.75-1.242.874-3.174 1.357-5.474 1.357-3.128 0-5.198-.782-6.808-2.553zm4.002-9.361c0 2.116 1.196 3.473 3.013 3.473 1.886 0 3.243-1.449 3.243-3.496 0-2.047-1.357-3.519-3.22-3.519-1.84 0-3.036 1.403-3.036 3.542z"/>
  </g>
</svg>
